X:688
T: ES WAR EINMAL EIN ARMER MANN
N: E2109
O: Europa, Mitteleuropa, Deutschland, Rheinland, Siebengebirge; Hessen;
R: geistlich, Heiligen - Lied, Legende
M: 4/4
L: 1/8
K: G
GA | B2B2B2AB | c2c2c2
B2 | A2A2A2GA | B2B2B2
GA | B2B2BAA2 | G4z2
GA | B2B2BAA2 | G4z2

